!!!Genre:	Freylekhs
!!!Mode:	Major
!!!Listening/dance:	dance
!!!:	*g:dor
!!!One_Mode:	no
**kern
*thru
*I"P1
*clefG2
*k[f#]
*G:
*M2/4
*>A
8g
=1
8bL
8gJ
(32bLLL
32a
32b
32aJJ)
8gJ
=2
16bLL
16g
16b
16gJJ
24aLL
24b
24aJ
8gJ
=3
16bLL
16g
16b
16ddJJ
16ccLL
16b
16cc
16eeJJ
=4
(40ddLLL
40ee
40dd
40ee
40ddJJ
8ggJ)
8ddL
8ggJ
=5
8bL
8gJ
24aLL
24b
24aJ
8gJ
=6
16bLL
16g
16b
16gJJ
24aLL
24b
24aJ
8gJ
=7
8bL
8ddJ
16ddLL
16cc
16b
16aJJ
=
4g
8r
=8:|!
*k[b-]
8dd
*>bM
*g:dor
*>B
=9
(8qff#X/
2gg)
=10
8qff#X/
2gg
=11
8qff#X/
4gg
8qff#/
4gg
=12
8qff#X/
4gg
8qff#/
4gg
=13!|:
8gg
(8qaa/
8ffnJ)
24eeLL
24ff
24eeJ
8ddJ
=14
8ee
8qgg/
4ff
8ff
=15
24eeLL
24ff
24eeJ
8ddJ
8cc#XL
8b-J
=16
8cc#X
(8qee/
4dd)
8dd
=17
16cc#XLL
16dd
16ee
16ddJJ
16cc#LL
16b-
16a
16gJJ
=18
(16.aLL
32ccnJJk)
4b-
8dd
=19
16cc#XLL
16dd
16ee
16ddJJ
16cc#LL
16b-
16a
16gJJ
*>B1
=20
16aLL
16b-JJ
8g
8r
8dd
=21
4.ggT
8dd
=22
4.gg
8dd
=23
8ggL
8dd
8gg
8ddJ
=24
8ggL
8ddJ
4gg
*>B2
=25:|!
(16aLL
16b-JJ)
4g
*>eM
==
*-
